X: 38060
T: Spirit
R: reel
M: 4/4
K: Eminor
|:"Em" EEB2 A2B2|{d}"G"B>ABd "Bm" BAFA|"D" DDA2 F2A2|{B}"Am" A>GAB (3cBAGA|
"Em" EEB2 A2B2|"G" BAB^c "D" dcBA|"Bm" B^cdc BcBA|"D" BAFG "Em" E2E2:|
"Em" BBe2 d2e2|{f}e>def (3gfede|"D" ddA2 d2f2|"Bm7" a^gfe d2ff|
"Em" eeB2 e2f2|gfef gfga|"Bm"(3bagfg fede|"D" fadf "Em" e2gf|
"Em" eBGB "C" ecGc|"Em" edef "G" gfga|"D" fdAd fdAd|"Bm7" a2f2 "G" d2 gf|
"Em" eBGB "C" ecGc|egfa gbac'|"Bm"(3bagfg fede|"D" f2d2 "Em" e2 GF||

